src/24/actions/document-properties.svg

<svg xmlns="http://www.w3.org/2000/svg" viewBox="0 0 24 24"><path d="M4 4v16h16V4H4zm1 4h14v11H5V8zm1 1v9h5V9H6zm6 1v1h6v-1h-6zm0 3v1h4v-1h-4zm0 3v1h2v-1h-2z" fill="currentColor" color="#5d656b"/></svg>

<svg xmlns="http://www.w3.org/2000/svg" viewBox="0 0 24 24">
  <defs id="defs3051">
    <style type="text/css" id="current-color-scheme">
      .ColorScheme-Text {
        color:#5d656b;
      }
      </style>
  </defs>
 <path style="fill:currentColor;fill-opacity:1;stroke:none" 
     d="M 4 4 L 4 20 L 5 20 L 20 20 L 20 19 L 20 4 L 19 4 L 5 4 L 4 4 z M 5 8 L 19 8 L 19 19 L 5 19 L 5 8 z M 6 9 L 6 18 L 11 18 L 11 9 L 6 9 z M 12 10 L 12 11 L 18 11 L 18 10 L 12 10 z M 12 13 L 12 14 L 16 14 L 16 13 L 12 13 z M 12 16 L 12 17 L 14 17 L 14 16 L 12 16 z "
     class="ColorScheme-Text"
     />
</svg>
